img/rating.svg

<svg width="48" height="48" viewBox="0 0 48 48" fill="none" xmlns="http://www.w3.org/2000/svg">
<g clip-path="url(#clip0)">
<path d="M46.967 25.747C50.602 12.625 44.314 0 33.295 0C27.198 0 24.595 3.504 17.898 11.663C11.2 19.822 1.65 8.478 0 25.747C1.386 41.66 18.652 56.064 26.668 42.774C33.966 30.674 43.333 38.868 46.968 25.747H46.967Z" fill="#FFDD76"/>
<path d="M32.754 12C32.43 12 32.182 12.25 32.182 12.576C32.182 12.902 32.43 13.152 32.754 13.152H33.287L26.865 19.642L21.167 13.901C21.1156 13.8465 21.0536 13.8031 20.9848 13.7735C20.916 13.7438 20.8419 13.7285 20.767 13.7285C20.6921 13.7285 20.618 13.7438 20.5492 13.7735C20.4804 13.8031 20.4184 13.8465 20.367 13.901L14.078 20.16C14.0239 20.2122 13.9808 20.2748 13.9514 20.3441C13.922 20.4133 13.9068 20.4878 13.9068 20.563C13.9068 20.6382 13.922 20.7127 13.9514 20.7819C13.9808 20.8512 14.0239 20.9138 14.078 20.966C14.1291 21.021 14.191 21.0649 14.2598 21.0949C14.3287 21.1249 14.4029 21.1404 14.478 21.1404C14.5531 21.1404 14.6274 21.1249 14.6962 21.0949C14.765 21.0649 14.8269 21.021 14.878 20.966L20.767 15.11L26.465 20.851C26.694 21.081 27.055 21.081 27.265 20.851L34.107 13.958V14.496C34.107 14.822 34.354 15.072 34.678 15.072C35.002 15.072 35.25 14.822 35.25 14.496V12.576C35.2502 12.4604 35.2159 12.3474 35.1514 12.2516C35.0869 12.1557 34.9951 12.0813 34.888 12.038C34.8205 12.0143 34.7496 12.0015 34.678 12H34.659H32.754ZM31.058 21.408C30.9822 21.4069 30.907 21.4211 30.8369 21.4497C30.7667 21.4783 30.7031 21.5208 30.6497 21.5745C30.5963 21.6283 30.5543 21.6923 30.5262 21.7626C30.498 21.833 30.4844 21.9083 30.486 21.984V35.424C30.486 35.75 30.734 36 31.058 36H34.488C34.812 36 35.059 35.75 35.059 35.424V21.984C35.0606 21.9083 35.047 21.8331 35.0189 21.7628C34.9909 21.6926 34.949 21.6286 34.8957 21.5749C34.8424 21.5211 34.7788 21.4787 34.7088 21.45C34.6388 21.4213 34.5637 21.407 34.488 21.408H31.058ZM12.554 21.908C12.4778 21.9078 12.4024 21.9233 12.3325 21.9537C12.2625 21.984 12.1997 22.0284 12.1477 22.0842C12.0958 22.14 12.056 22.2059 12.0307 22.2778C12.0055 22.3497 11.9954 22.426 12.001 22.502V22.579C12.001 22.886 12.268 23.136 12.591 23.136C12.914 23.136 13.164 22.867 13.144 22.541V22.464C13.144 22.138 12.878 21.907 12.554 21.907V21.908ZM18.861 23.328C18.7853 23.327 18.7102 23.3413 18.6402 23.37C18.5702 23.3987 18.5066 23.4411 18.4533 23.4949C18.4001 23.5486 18.3581 23.6126 18.3301 23.6828C18.302 23.7531 18.2884 23.8283 18.29 23.904V35.424C18.29 35.75 18.537 36 18.861 36H22.291C22.615 36 22.863 35.75 22.863 35.424V23.904C22.8646 23.8283 22.851 23.7531 22.8229 23.6828C22.7949 23.6126 22.753 23.5486 22.6997 23.4949C22.6464 23.4411 22.5828 23.3987 22.5128 23.37C22.4428 23.3413 22.3677 23.327 22.292 23.328H18.861ZM19.433 24.48H21.72V34.848H19.433V24.48ZM24.959 27.168C24.8833 27.167 24.8082 27.1813 24.7382 27.21C24.6682 27.2387 24.6046 27.2811 24.5513 27.3349C24.4981 27.3886 24.4561 27.4526 24.4281 27.5228C24.4 27.5931 24.3864 27.6683 24.388 27.744V35.424C24.388 35.75 24.635 36 24.959 36H28.389C28.714 36 28.961 35.75 28.961 35.424V27.744C28.9626 27.6683 28.949 27.5931 28.9209 27.5228C28.8929 27.4526 28.851 27.3886 28.7977 27.3349C28.7444 27.2811 28.6808 27.2387 28.6108 27.21C28.5408 27.1813 28.4657 27.167 28.39 27.168H24.959ZM25.531 28.32H27.818V34.848H25.531V28.32ZM12.763 29.088C12.6873 29.087 12.6122 29.1013 12.5422 29.13C12.4722 29.1587 12.4086 29.2011 12.3553 29.2549C12.3021 29.3086 12.2601 29.3726 12.2321 29.4428C12.204 29.5131 12.1904 29.5883 12.192 29.664V35.424C12.192 35.75 12.439 36 12.763 36H16.193C16.517 36 16.765 35.75 16.765 35.424V29.664C16.7666 29.5883 16.753 29.513 16.7248 29.4426C16.6967 29.3722 16.6547 29.3083 16.6013 29.2545C16.5479 29.2008 16.4843 29.1583 16.4141 29.1297C16.344 29.1011 16.2688 29.0869 16.193 29.088H12.763ZM13.335 30.24H15.622V34.848H13.335V30.24Z" fill="#63522B"/>
</g>
<defs>
<clipPath id="clip0">
<rect width="48" height="48" fill="white"/>
</clipPath>
</defs>
</svg>

<svg width="48" height="48" fill="none" xmlns="http://www.w3.org/2000/svg"><g clip-path="url(#clip0)"><path d="M46.967 25.747C50.602 12.625 44.314 0 33.295 0c-6.097 0-8.7 3.504-15.397 11.663C11.2 19.822 1.65 8.478 0 25.747 1.386 41.66 18.652 56.064 26.668 42.774c7.298-12.1 16.665-3.906 20.3-17.027h-.001z" fill="#FFDD76"/><path d="M32.754 12a.564.564 0 0 0-.572.576c0 .326.248.576.572.576h.533l-6.422 6.49-5.698-5.741a.548.548 0 0 0-.8 0l-6.289 6.259a.56.56 0 0 0 0 .806.546.546 0 0 0 .8 0l5.889-5.856 5.698 5.741c.229.23.59.23.8 0l6.842-6.893v.538c0 .326.247.576.571.576.324 0 .572-.25.572-.576v-1.92a.579.579 0 0 0-.362-.538.677.677 0 0 0-.21-.038h-1.924zm-1.696 9.408a.564.564 0 0 0-.572.576v13.44c0 .326.248.576.572.576h3.43c.324 0 .571-.25.571-.576v-13.44a.564.564 0 0 0-.571-.576h-3.43zm-18.504.5a.552.552 0 0 0-.553.594v.077c0 .307.267.557.59.557a.554.554 0 0 0 .553-.595v-.077c0-.326-.266-.557-.59-.557v.001zm6.307 1.42a.562.562 0 0 0-.571.576v11.52c0 .326.247.576.571.576h3.43c.324 0 .572-.25.572-.576v-11.52a.564.564 0 0 0-.571-.576h-3.431zm.572 1.152h2.287v10.368h-2.287V24.48zm5.526 2.688a.562.562 0 0 0-.571.576v7.68c0 .326.247.576.571.576h3.43c.325 0 .572-.25.572-.576v-7.68a.564.564 0 0 0-.571-.576h-3.431zm.572 1.152h2.287v6.528h-2.287V28.32zm-12.768.768a.562.562 0 0 0-.571.576v5.76c0 .326.247.576.571.576h3.43c.324 0 .572-.25.572-.576v-5.76a.563.563 0 0 0-.572-.576h-3.43zm.572 1.152h2.287v4.608h-2.287V30.24z" fill="#63522B"/></g><defs><clipPath id="clip0"><path fill="#fff" d="M0 0h48v48H0z"/></clipPath></defs></svg>
